svg/video_alert_outline.svg

<svg width="24" height="24" viewBox="0 0 24 24" xmlns="http://www.w3.org/2000/svg">
<path d="M10 15C10.0814 15 10.162 14.984 10.2373 14.9528C10.3125 14.9216 10.3808 14.876 10.4384 14.8184C10.496 14.7608 10.5416 14.6925 10.5728 14.6173C10.604 14.542 10.62 14.4614 10.62 14.38H9.38C9.38 14.5444 9.44532 14.7021 9.56159 14.8184C9.67787 14.9347 9.83557 15 10 15Z" />
<path d="M12.46 13.77L11.85 13.15V11.62C11.8811 11.1841 11.7593 10.7509 11.5056 10.3951C11.252 10.0392 10.8822 9.7828 10.46 9.67V9.46C10.46 9.338 10.4115 9.221 10.3253 9.13473C10.239 9.04846 10.122 9 10 9C9.878 9 9.761 9.04846 9.67473 9.13473C9.58846 9.221 9.54 9.338 9.54 9.46V9.67C9.11777 9.7828 8.74804 10.0392 8.49436 10.3951C8.24068 10.7509 8.11892 11.1841 8.15 11.62V13.15L7.54 13.77V14.08H12.46V13.77Z" />
<path d="M17 10.5V7C17 6.73478 16.8946 6.48043 16.7071 6.29289C16.5196 6.10536 16.2652 6 16 6H4C3.73478 6 3.48043 6.10536 3.29289 6.29289C3.10536 6.48043 3 6.73478 3 7V17C3 17.2652 3.10536 17.5196 3.29289 17.7071C3.48043 17.8946 3.73478 18 4 18H16C16.2652 18 16.5196 17.8946 16.7071 17.7071C16.8946 17.5196 17 17.2652 17 17V13.5L21 17.5V6.5L17 10.5ZM15 16H5V8H15V16Z" />
</svg>

<svg width="24" height="24" viewBox="0 0 24 24" xmlns="http://www.w3.org/2000/svg"><path d="M10 15a.62.62 0 0 0 .62-.62H9.38A.62.62 0 0 0 10 15zM12.46 13.77l-.61-.62v-1.53a1.88 1.88 0 0 0-1.39-1.95v-.21a.46.46 0 0 0-.92 0v.21a1.88 1.88 0 0 0-1.39 1.95v1.53l-.61.62v.31h4.92v-.31z"/><path d="M17 10.5V7a1 1 0 0 0-1-1H4a1 1 0 0 0-1 1v10a1 1 0 0 0 1 1h12a1 1 0 0 0 1-1v-3.5l4 4v-11l-4 4zM15 16H5V8h10v8z"/></svg>
